public/MongoDB.svg

<svg width="50" height="50" viewBox="0 0 50 50" fill="none" xmlns="http://www.w3.org/2000/svg">
<g clip-path="url(#clip0_150_155)">
<path d="M35.8186 19.9063C33.1853 8.28125 26.9603 4.46042 26.2915 3C25.7082 2.17917 25.1874 1.0125 24.7603 0C24.6853 1.03125 24.6457 1.42708 23.6707 2.46667C22.1644 3.64583 14.4249 10.1375 13.7957 23.3417C13.2082 35.6583 22.6915 42.9979 23.979 43.9333L24.1249 44.0375C24.3929 46.0203 24.6222 48.0082 24.8124 50H25.8144C26.0518 47.8502 26.4064 45.7152 26.8769 43.6042C27.7457 42.9875 28.1353 42.6396 28.6478 42.1604C31.0748 39.9152 33.0036 37.1857 34.3095 34.1482C35.6154 31.1107 36.2694 27.8331 36.229 24.5271C36.2499 22.8313 36.0144 21.0646 35.8186 19.9063V19.9063ZM24.7019 36.9792C24.7019 36.9792 24.7019 19.7062 25.2749 19.7083C25.7186 19.7083 26.2957 41.9896 26.2957 41.9896C25.5019 41.8958 24.7019 38.3229 24.7019 36.9792Z" fill="#1096E1"/>
</g>
<defs>
<clipPath id="clip0_150_155">
<rect width="50" height="50" fill="white"/>
</clipPath>
</defs>
</svg>

<svg xmlns="http://www.w3.org/2000/svg" width="50" height="50" fill="none" xmlns:v="https://vecta.io/nano"><g clip-path="url(#A)"><path d="M35.819 19.906C33.185 8.281 26.96 4.46 26.292 3c-.583-.821-1.104-1.987-1.531-3-.075 1.031-.115 1.427-1.09 2.467-1.506 1.179-9.246 7.671-9.875 20.875-.588 12.317 8.896 19.656 10.183 20.592l.146.104c.268 1.983.497 3.971.688 5.962h1.002a59.34 59.34 0 0 1 1.063-6.396 14.49 14.49 0 0 0 1.771-1.444 23.63 23.63 0 0 0 7.581-17.633c.021-1.696-.215-3.463-.41-4.621h0zM24.702 36.979s0-17.273.573-17.271c.444 0 1.021 22.281 1.021 22.281-.794-.094-1.594-3.667-1.594-5.01z" fill="#1096e1"/></g><defs><clipPath id="A"><path fill="#fff" d="M0 0h50v50H0z"/></clipPath></defs></svg>
